img/cases_decor-1.svg

<svg width="143" height="141" viewBox="0 0 143 141" fill="none" xmlns="http://www.w3.org/2000/svg">
<g clip-path="url(#clip0)">
<path d="M80.8418 32.8772C80.8418 32.8772 74.9952 28.6928 71.8604 26.4172C63.48 20.3338 62.7968 12.5325 54.4274 6.43387C46.9179 0.961835 37.1001 -2.26839 28.6449 3.82611C23.1621 7.77819 21.9274 19.1335 16.6615 27.974C14.3054 31.9296 11.2964 34.8575 8.54161 37.6637C4.70883 41.568 0.852972 47.6728 1.28092 55.09C1.53065 59.4181 4.67615 63.7261 8.84045 67.1064M33.9742 74.9665C36.2426 75.3639 38.5837 76.02 41.1006 77.2537C44.5789 78.9585 46.0956 80.7107 49.587 82.3886C57.562 86.2212 65.6545 89.5561 74.1417 91.3683C75.866 91.7365 84.8084 93.3792 87.9655 89.2149C90.942 85.2889 87.1485 81.1826 82.4217 77.4582M64.2634 62.8936C62.9802 60.9006 62.6114 58.7876 63.9589 56.5924C66.4788 52.4874 70.7579 53.3886 75.5758 55.6281M90.3207 63.3908C95.594 66.0299 100.85 67.7647 103.448 63.6269C105.928 59.6779 102.808 54.6134 99.7996 50.6918" stroke="#33386F"/>
<mask id="path-2-inside-1" fill="white">
</mask>
<path d="M60.6993 26.2608C55.2121 16.7214 43.0307 13.4365 33.4913 18.9237L32.9927 18.0568C43.0108 12.2943 55.8036 15.7441 61.5662 25.7622L60.6993 26.2608ZM33.4913 18.9237C23.9519 24.4109 20.667 36.5923 26.1542 46.1317L25.2874 46.6303C19.5248 36.6122 22.9746 23.8194 32.9927 18.0568L33.4913 18.9237ZM26.1542 46.1317C28.1215 49.5518 30.9481 52.167 34.2049 53.863L33.743 54.7499C30.322 52.9684 27.3526 50.2207 25.2874 46.6303L26.1542 46.1317ZM54.7543 52.591C63.2099 46.763 65.9104 35.3202 60.6993 26.2608L61.5662 25.7622C67.039 35.2766 64.2026 47.2932 55.3218 53.4143L54.7543 52.591ZM51.1147 49.5612C58.496 45.3154 61.0378 35.8897 56.792 28.5084L57.6588 28.0098C62.18 35.8698 59.4734 45.9068 51.6133 50.4281L51.1147 49.5612ZM56.792 28.5084C52.5461 21.1271 43.1205 18.5853 35.7391 22.8311L35.2405 21.9643C43.1006 17.4431 53.1376 20.1497 57.6588 28.0098L56.792 28.5084ZM35.7391 22.8311C28.3578 27.077 25.816 36.5026 30.0619 43.884L29.195 44.3826C24.6738 36.5225 27.3805 26.4855 35.2405 21.9643L35.7391 22.8311ZM49.062 50.5502C49.7592 50.2755 50.4452 49.9463 51.1147 49.5612L51.6133 50.4281C50.9013 50.8376 50.1712 51.188 49.4287 51.4806L49.062 50.5502ZM30.0619 43.884C31.379 46.1738 33.1935 47.9968 35.2905 49.2966L34.7637 50.1465C32.5295 48.7618 30.5967 46.8193 29.195 44.3826L30.0619 43.884Z" fill="#33386F" mask="url(#path-2-inside-1)"/>
<path d="M82.1646 36.7004C82.1646 34.5 80.6477 32.523 80.6477 32.523C80.6477 32.523 82.7661 32.9856 84.0937 32.9942C86.6658 33.0107 94.7455 32.6359 99.0226 38.218C100.44 40.0673 102.403 45.8127 99.7437 50.3363C98.6428 52.2089 94.3454 55.282 91.942 59.8021C90.1192 63.2303 83.7157 75.6018 80.9557 78.7191C80.9557 78.7191 79.3446 81.371 77.0937 80.3825C75.2381 79.5676 77.6265 74.8646 77.6265 74.8646C77.6265 74.8646 74.7321 80.076 72.1785 78.7736C69.1179 77.2126 73.138 72.4616 73.138 72.4616C73.138 72.4616 67.4862 77.5731 64.8367 74.6646C61.8282 71.362 69.0882 67.8652 69.0882 67.8652C69.0882 67.8652 67.1417 67.4386 66.0197 66.7337C64.8978 66.0288 63.8503 64.8142 64.3043 63.4273C64.9984 61.3068 69.0526 61.7849 70.6307 61.0008C71.3476 60.6446 72.7479 59.6836 74.4462 57.6077C77.07 54.4005 78.439 51.8983 79.682 48.6753C82.0637 42.5 82.1646 39.3094 82.1646 36.7004Z" stroke="#33386F"/>
<path d="M9.59686 67.2294C6.9821 66.77 4.56259 62.6611 4.56259 62.6611C4.56259 62.6611 4.87622 65.1333 4.92206 66.6003C5.01087 69.4424 4.26269 78.6725 10.5552 83.2516C12.6398 84.7686 17.7928 87.566 23.9809 83.7278C26.0223 82.4615 29.3041 77.6308 34.2387 74.855C37.9812 72.7498 51.4918 65.3454 54.8647 62.2126C54.8647 62.2126 57.482 59.453 56.4985 57.6215C55.3722 55.5241 51.3325 57.1367 51.3325 57.1367C51.3325 57.1367 55.6902 54.6284 54.6844 52.511C53.0664 49.105 48.6804 52.1887 48.6804 52.1887C48.6804 52.1887 52.6914 46.2477 49.9374 44.5059C45.7591 41.863 42.5321 49.3844 42.5321 49.3844C42.5321 49.3844 42.148 47.2439 41.1963 46.0232C40.4526 45.0693 39.0514 43.7987 37.4916 44.2149C36.0928 44.5882 35.7023 48.3151 34.9807 51.2708C34.4048 53.6298 33.7315 55.3998 31.8104 56.622C26.3017 60.1267 22.7468 60.747 16.5406 63.4933C13.7223 64.7404 12.6297 67.7623 9.59686 67.2294Z" stroke="#33386F"/>
</g>
<defs>
<clipPath id="clip0">
<rect width="143" height="141" fill="white"/>
</clipPath>
</defs>
</svg>

<svg width="143" height="141" fill="none" xmlns="http://www.w3.org/2000/svg"><g clip-path="url(#clip0)"><path d="M80.842 32.877s-5.847-4.184-8.982-6.46c-8.38-6.083-9.063-13.885-17.433-19.983C46.917.962 37.1-2.268 28.645 3.826c-5.483 3.952-6.718 15.308-11.983 24.148-2.357 3.956-5.366 6.884-8.12 9.69C4.709 41.568.853 47.673 1.28 55.09c.25 4.328 3.395 8.636 7.56 12.016m25.133 7.86c2.269.398 4.61 1.054 7.127 2.288 3.478 1.704 4.995 3.457 8.486 5.135 7.975 3.832 16.067 7.167 24.555 8.98 1.724.368 10.666 2.01 13.824-2.154 2.976-3.926-.817-8.032-5.544-11.757M64.263 62.894c-1.283-1.993-1.652-4.106-.304-6.302 2.52-4.105 6.799-3.203 11.617-.964m14.745 7.763c5.273 2.639 10.529 4.374 13.127.236 2.48-3.95-.64-9.014-3.648-12.935" stroke="#33386F"/><path d="M60.7 26.26c-5.488-9.539-17.67-12.824-27.209-7.336l-.498-.867c10.018-5.763 22.81-2.313 28.573 7.705l-.867.499zm-27.21-7.335c-9.54 5.487-12.824 17.668-7.337 27.208l-.867.498c-5.762-10.018-2.312-22.81 7.706-28.573l.498.867zm-7.337 27.208a19.83 19.83 0 008.05 7.731l-.461.887a20.83 20.83 0 01-8.456-8.12l.867-.498zm28.6 6.459c8.456-5.828 11.156-17.27 5.945-26.33l.867-.499c5.473 9.515 2.637 21.531-6.244 27.652l-.568-.823zm-3.64-3.03c7.382-4.246 9.924-13.671 5.678-21.053l.867-.498c4.521 7.86 1.814 17.897-6.046 22.418l-.498-.867zm5.678-21.053c-4.246-7.38-13.672-9.923-21.053-5.677l-.498-.867c7.86-4.52 17.897-1.814 22.418 6.046l-.867.498zm-21.053-5.677c-7.381 4.246-9.923 13.672-5.677 21.053l-.867.499c-4.521-7.86-1.814-17.898 6.045-22.419l.5.867zm13.323 27.72a15.543 15.543 0 002.053-.99l.498.867c-.712.41-1.442.76-2.184 1.053l-.367-.93zm-19-6.667a15.348 15.348 0 005.229 5.413l-.527.85a16.347 16.347 0 01-5.569-5.764l.867-.499z" fill="#33386F" mask="url(#a)"/><path d="M82.165 36.7c0-2.2-1.517-4.177-1.517-4.177s2.118.463 3.446.471c2.572.017 10.652-.358 14.929 5.224 1.417 1.85 3.38 7.595.72 12.118-1.1 1.873-5.398 4.946-7.801 9.466-1.823 3.428-8.226 15.8-10.986 18.917 0 0-1.611 2.652-3.862 1.663-1.856-.814.532-5.517.532-5.517s-2.894 5.211-5.448 3.909c-3.06-1.561.96-6.312.96-6.312s-5.652 5.111-8.301 2.203c-3.009-3.303 4.251-6.8 4.251-6.8s-1.946-.426-3.068-1.131c-1.122-.705-2.17-1.92-1.716-3.307.694-2.12 4.749-1.642 6.327-2.426.717-.356 2.117-1.317 3.815-3.393 2.624-3.207 3.993-5.71 5.236-8.933 2.382-6.175 2.483-9.366 2.483-11.975zM9.597 67.23c-2.615-.46-5.034-4.569-5.034-4.569s.313 2.472.36 3.94c.088 2.841-.66 12.072 5.632 16.65 2.085 1.518 7.238 4.315 13.426.477 2.041-1.266 5.323-6.097 10.258-8.873 3.742-2.105 17.253-9.51 20.626-12.642 0 0 2.617-2.76 1.633-4.592-1.126-2.097-5.165-.484-5.165-.484s4.357-2.509 3.351-4.626c-1.618-3.406-6.004-.322-6.004-.322s4.011-5.941 1.257-7.683c-4.178-2.643-7.405 4.878-7.405 4.878s-.384-2.14-1.336-3.36c-.743-.955-2.145-2.225-3.704-1.81-1.4.374-1.79 4.101-2.511 7.057-.576 2.359-1.25 4.129-3.17 5.351-5.51 3.505-9.064 4.125-15.27 6.871-2.819 1.247-3.911 4.27-6.944 3.736z" stroke="#33386F"/></g><defs><clipPath id="clip0"><path fill="#fff" d="M0 0h143v141H0z"/></clipPath></defs></svg>
